!!!COM:	Bach, Johann Sebastian
!!!OMV:	Oh God, how many heart pains
!!!OTL:	Oh God, how many heart pains
**kern	**fb	**kern	**kern	**kern	**kern	**kern	**kern	**kern	**kern
*part9	*part9	*part8	*part7	*part6	*part5	*part4	*part3	*part2	*part1
*staff9	*	*staff8	*staff7	*staff6	*staff5	*staff4	*staff3	*staff2	*staff1
*I"Continuo	*	*I"Voice	*I"Voice	*I"Voice	*I"Voice	*I"Timpani	*I"C Trumpet	*I"C Trumpet	*I"C Trumpet
*I'Cont.	*	*I'V	*I'V	*I'V	*I'V	*I'Timp.	*I'C Tpt.	*I'C Tpt.	*I'C Tpt.
*clefF4	*	*clefF4	*clefGv2	*clefG2	*clefG2	*clefF4	*clefG2	*clefG2	*clefG2
*Trd0c0	*	*	*	*	*	*	*	*	*
*k[]	*	*k[]	*k[]	*k[]	*k[]	*k[]	*k[]	*k[]	*k[]
*M4/4	*	*M4/4	*M4/4	*M4/4	*M4/4	*M4/4	*M4/4	*M4/4	*M4/4
4C	.	4C	8GL	4e	4cc	4r	4r	4r	4r
.	.	.	8AJ	.	.	.	.	.	.
=2	=2	=2	=2	=2	=2	=2	=2	=2	=2
4G	.	4G	8BL	8dL	4b	1r	1r	1r	1r
.	.	.	8cJ	8eJ	.	.	.	.	.
4D	.	4D	8dL	4f	4a	.	.	.	.
.	.	.	8cJ	.	.	.	.	.	.
4E	.	4E	4B	8eL	8gL	.	.	.	.
.	.	.	.	8dJ	8f#XJ	.	.	.	.
8AL	.	8AL	8cL	4c	4e	.	.	.	.
8GJ	.	8GJ	8BJ	.	.	.	.	.	.
=3	=3	=3	=3	=3	=3	=3	=3	=3	=3
8FL	.	8FL	8AL	4c	4a	1r	1r	1r	1r
8G	.	8G	8BJ	.	.	.	.	.	.
8A	.	8A	4c	4f	4a	.	.	.	.
8BJ	.	8BJ	.	.	.	.	.	.	.
4c;	.	4c;	4c;	4e;	4g;	.	.	.	.
4A	6	4A	4c	4f#X	4cc	.	.	.	.
=4	=4	=4	=4	=4	=4	=4	=4	=4	=4
4G	.	4G	8dL	4g	4b	1r	1r	1r	1r
.	.	.	8eJ	.	.	.	.	.	.
4F#X	6	4F#X	4f#X	4d#X	4a	.	.	.	.
4.E	.	4.E	8BL	4e	8gL	.	.	.	.
.	.	.	8AJ	.	8f#XJ	.	.	.	.
.	.	.	4G	4B	4e	.	.	.	.
8D	.	8D	.	.	.	.	.	.	.
=5	=5	=5	=5	=5	=5	=5	=5	=5	=5
8CL	.	8CL	8GL	4.e	4a	1r	1r	1r	1r
8AA	.	8AA	16F#XL	.	.	.	.	.	.
.	.	.	16EJJ	.	.	.	.	.	.
8FF#X	.	8FF#X	8cL	.	4a	.	.	.	.
8BBJ	.	8BBJ	8BJ	8d#X	.	.	.	.	.
4E;	.	4E;	4B;	4e;	4g;	.	.	.	.
4E	.	4E	8cL	4e	4g	.	.	.	.
.	.	.	8BJ	.	.	.	.	.	.
=6	=6	=6	=6	=6	=6	=6	=6	=6	=6
!!pagebreak:original
4F#X	.	4F#X	4A	8eL	4a	1r	1r	1r	1r
.	.	.	.	8dn	.	.	.	.	.
4G#X	.	4G#X	4e	8c	4b	.	.	.	.
.	.	.	.	8BJ	.	.	.	.	.
4.A	.	4.A	8eL	4A	8ccL	.	.	.	.
.	.	.	8dJ	.	8ddJ	.	.	.	.
.	.	.	4c	4a	4ee	.	.	.	.
8Gn	.	8Gn	.	.	.	.	.	.	.
=	=	=	=	=	=	=	=	=	=
8FnL	.	8FnL	4c	4a	2dd	2r	2r	2r	2r
8DJ	.	8DJ	.	.	.	.	.	.	.
4G	.	4G	4B	8gL	.	.	.	.	.
.	.	.	.	8fJ	.	.	.	.	.
4C;	.	4C;	4G;	4e;	4cc;	4r	4r	4r	4r
=7:|!	=7:|!	=7:|!	=7:|!	=7:|!	=7:|!	=7:|!	=7:|!	=7:|!	=7:|!
!!pagebreak:original
4C	.	4C	4G	4e	4cc	4r	4r	4r	4r
=8	=8	=8	=8	=8	=8	=8	=8	=8	=8
8FL	.	8FL	4A	4f	4cc	1r	1r	1r	1r
8EJ	.	8EJ	.	.	.	.	.	.	.
4D	.	4D	8AL	4f	4dd	.	.	.	.
.	.	.	8BJ	.	.	.	.	.	.
4.A	.	4.A	8cL	8eL	8ccL	.	.	.	.
.	.	.	8dJ	8d	8bJ	.	.	.	.
.	.	.	4e	8c	8aL	.	.	.	.
8G	.	8G	.	8BJ	8bJ	.	.	.	.
=9	=9	=9	=9	=9	=9	=9	=9	=9	=9
8F#XL	.	8F#XL	8dL	4A	4cc	1r	1r	1r	1r
8EJ	.	8EJ	8cJ	.	.	.	.	.	.
4D	.	4D	4d	4f#X	4cc	.	.	.	.
4G;	.	4G;	4d;	4g;	4b;	.	.	.	.
8GL	.	8GL	4d	4g	4b	.	.	.	.
8FnJ	.	8FnJ	.	.	.	.	.	.	.
=10	=10	=10	=10	=10	=10	=10	=10	=10	=10
8EL	.	8EL	4G	8gL	4cc	1r	1r	1r	1r
8D	.	8D	.	8fn	.	.	.	.	.
8C	.	8C	4G	8e	4dd	.	.	.	.
8BBJ	.	8BBJ	.	8dJ	.	.	.	.	.
4C	.	4C	4G	4e	8ccL	.	.	.	.
.	.	.	.	.	8bJ	.	.	.	.
4D	.	4D	4d	4f	8aL	.	.	.	.
.	.	.	.	.	8bJ	.	.	.	.
=11	=11	=11	=11	=11	=11	=11	=11	=11	=11
4E	.	4E	8cL	4g	4cc	1r	1r	1r	1r
.	.	.	8BJ	.	.	.	.	.	.
4F#X	.	4F#X	4A	8aL	4cc	.	.	.	.
.	.	.	.	8dJ	.	.	.	.	.
4G;	.	4G;	4G;	4d;	4b;	.	.	.	.
4G#X	.	4G#X	4B	8eL	4ee	.	.	.	.
.	.	.	.	8dJ	.	.	.	.	.
=12	=12	=12	=12	=12	=12	=12	=12	=12	=12
4A	.	4A	4A	4c	8ffL	1r	1r	1r	1r
.	.	.	.	.	8eeJ	.	.	.	.
4B	.	4B	4d	8gL	4dd	.	.	.	.
.	.	.	.	8fJ	.	.	.	.	.
8cL	.	8cL	8cL	4e	8eeL	.	.	.	.
8B	.	8B	8dJ	.	8ddJ	.	.	.	.
8A	.	8A	4e	4a	4cc	.	.	.	.
8GJ	.	8GJ	.	.	.	.	.	.	.
=13	=13	=13	=13	=13	=13	=13	=13	=13	=13
!!pagebreak:original
8FL	.	8FL	4d	4a	4cc	1r	1r	1r	1r
8DJ	.	8DJ	.	.	.	.	.	.	.
4G	.	4G	4d	4g	4b	.	.	.	.
4C;	.	4C;	4e;	4g;	4cc;	.	.	.	.
4G	.	4G	4d	4g	4b	.	.	.	.
=14	=14	=14	=14	=14	=14	=14	=14	=14	=14
8GL	.	8GL	4d	4a	4cc	1r	1r	1r	1r
8F#X	6 5	8F#X	.	.	.	.	.	.	.
8F#	4 2	8F#	8dL	4g	4b	.	.	.	.
8EJ	6 5	8EJ	8cJ	.	.	.	.	.	.
8EL	4 #2\	8EL	8cL	4f#X	4a	.	.	.	.
8D#X	6 5	8D#X	8BJ	.	.	.	.	.	.
8E	.	8E	4B	4e	4g	.	.	.	.
8DnJ	.	8DnJ	.	.	.	.	.	.	.
=15	=15	=15	=15	=15	=15	=15	=15	=15	=15
8DL	4 2	8DL	8BL	4e	4g	1r	1r	1r	1r
8C#XJ	6 5	8C#XJ	8AJ	.	.	.	.	.	.
4D	.	4D	4A	4d	4f#X	.	.	.	.
4GG;	.	4GG;	4B;	4d;	4g;	.	.	.	.
4Cn	.	4Cn	8GL	8eL	4ee	.	.	.	.
.	.	.	8AJ	8f#XJ	.	.	.	.	.
=16	=16	=16	=16	=16	=16	=16	=16	=16	=16
4G	.	4G	4B	8gL	4dd	1r	1r	1r	1r
.	.	.	.	8f#X	.	.	.	.	.
4A	.	4A	8cL	8e	4cc	.	.	.	.
.	.	.	8dJ	8f#J	.	.	.	.	.
4E;	.	4E;	4e;	4g#X;	4b;	.	.	.	.
4C#X	.	4C#X	4e	8aL	4ee	.	.	.	.
.	.	.	.	8gnJ	.	.	.	.	.
=17	=17	=17	=17	=17	=17	=17	=17	=17	=17
4D	.	4D	4A	4fn	8ffL	1r	1r	1r	1r
.	.	.	.	.	8eeJ	.	.	.	.
4G	.	4G	4B	8gL	4dd	.	.	.	.
.	.	.	.	8fJ	.	.	.	.	.
8CnL	.	8CnL	4c	8eL	8eeL	.	.	.	.
8D	.	8D	.	8fJ	8ddJ	.	.	.	.
8E	.	8E	8cL	4g	4cc	.	.	.	.
8FJ	.	8FJ	8dJ	.	.	.	.	.	.
=18	=18	=18	=18	=18	=18	=18	=18	=18	=18
!!pagebreak:original
4G	.	4G	8eL	4g	4cc	1r	1r	1r	1r
.	.	.	8cJ	.	.	.	.	.	.
4GG	.	4GG	4d	4g	4b	.	.	.	.
4C;	.	4C;	4e;	4g;	4cc;	.	.	.	.
4A	.	4A	4c	8eL	4cc	.	.	.	.
.	.	.	.	8f#XJ	.	.	.	.	.
=19	=19	=19	=19	=19	=19	=19	=19	=19	=19
4E	.	4E	8cL	4g	4cc	1r	1r	1r	1r
.	.	.	8B-XJ	.	.	.	.	.	.
4F	.	4F	4A	8fnL	4cc	.	.	.	.
.	.	.	.	8eJ	.	.	.	.	.
4BB	.	4BB	8AL	4f	4dd	.	.	.	.
.	.	.	8GJ	.	.	.	.	.	.
8CL	.	8CL	4G	4e	4cc	.	.	.	.
8BBJ	.	8BBJ	.	.	.	.	.	.	.
=20	=20	=20	=20	=20	=20	=20	=20	=20	=20
8AAL	.	8AAL	8F#XL	4a	2.cc	2r	2r	2r	2r
8GGJ	.	8GGJ	8GJ	.	.	.	.	.	.
4FF#X	.	4FF#X	4A	4d	.	.	.	.	.
2GG	.	2GG	2G	2d	.	8r	8r	8r	8r
.	.	.	.	.	.	16GGLL	16gLL	16ddLL	16ggLL
.	.	.	.	.	.	16GGJJ	16gJJ	16ddJJ	16ffJJ
.	.	.	.	.	4b	16GGLL	8gL	16ddLL	16ggLL
.	.	.	.	.	.	16GG	.	16ff	16aa
.	.	.	.	.	.	16GG	8gJ	16ee	16gg
.	.	.	.	.	.	16GGJJ	.	16ddJJ	16ffJJ
=21	=21	=21	=21	=21	=21	=21	=21	=21	=21
1C;	.	1C;	1G;	1e;	1cc;	1C;	1g;	1cc;	1ee;
=||	=||	=||	=||	=||	=||	=||	=||	=||	=||
*-	*-	*-	*-	*-	*-	*-	*-	*-	*-
!!!system-decoration: s1,s2,s3,s4,s5,s6,s7,s8,s9
